icon-themes/breeze_svg/reportdesign/res/sx12603.svg

<svg viewBox="0 0 16 16" xmlns="http://www.w3.org/2000/svg"><path d="m7 2v1h6v-1zm0 3v1h6v-1zm0 3v1h6v-1z" fill="#1d99f3"/></svg>

<svg xmlns="http://www.w3.org/2000/svg" viewBox="0 0 16 16">
 <path 
     style="fill:#1d99f3" 
     d="M 7 2 L 7 3 L 13 3 L 13 2 L 7 2 z M 7 5 L 7 6 L 13 6 L 13 5 L 7 5 z M 7 8 L 7 9 L 13 9 L 13 8 L 7 8 z "
     />
</svg>
